src/svg/Returns_20.svg

<?xml version="1.0" encoding="UTF-8"?>
<svg width="20px" height="20px" viewBox="0 0 20 20" version="1.1" xmlns="http://www.w3.org/2000/svg" xmlns:xlink="http://www.w3.org/1999/xlink">
    <!-- Generator: Sketch 56.3 (81716) - https://sketch.com -->
    <title>Icons/Returns/20</title>
    <desc>Created with Sketch.</desc>
    <g id="Icons/Returns/20" stroke="none" stroke-width="1" fill="none" fill-rule="evenodd">
        <path d="M10.4666667,16 L13.1333333,18 L12.5333333,18.8 L8,15.4 L12.5333333,12 L13.1333333,12.8 L10.2,15 L13,15 C15.7614237,15 18,12.7614237 18,10 C18,7.23857625 15.7614237,5 13,5 L11.9285714,5 L11.9285714,4 L13,4 C16.3137085,4 19,6.6862915 19,10 C19,13.3137085 16.3137085,16 13,16 L10.4666667,16 Z M8.66666667,5 L7,5 C4.23857625,5 2,7.23857625 2,10 C2,12.7614237 4.23857625,15 7,15 L7.07142857,15 L7.07142857,16 L7,16 C3.6862915,16 1,13.3137085 1,10 C1,6.6862915 3.6862915,4 7,4 L8.93333333,4 L6,1.8 L6.6,1 L11.1333333,4.4 L6.6,7.8 L6,7 L8.66666667,5 Z" id="Combined-Shape" fill="#000000" fill-rule="nonzero"></path>
    </g>
</svg>

<svg viewBox="0 0 20 20"><path d="M10.467 16l2.666 2-.6.8L8 15.4l4.533-3.4.6.8L10.2 15H13a5 5 0 000-10h-1.071V4H13a6 6 0 110 12h-2.533zm-1.8-11H7a5 5 0 100 10h.071v1H7A6 6 0 117 4h1.933L6 1.8l.6-.8 4.533 3.4L6.6 7.8 6 7l2.667-2z" fill-rule="nonzero"/></svg>
